; generated by Slic3r 1.3.0 on 2021-03-23 at 12:44:07

; external perimeters extrusion width = 0.55mm (4.37mm^3/s)
; perimeters extrusion width = 0.70mm (11.44mm^3/s)
; infill extrusion width = 0.62mm (13.45mm^3/s)
; solid infill extrusion width = 0.70mm (3.81mm^3/s)
; top infill extrusion width = 0.70mm (2.86mm^3/s)

M107
M104 S200 ; set temperature
G28 ; home all axes
G1 Z5 F5000 ; lift nozzle

; Filament gcode

M109 S200 ; set temperature and wait for it to be reached
G21 ; set units to millimeters
G90 ; use absolute coordinates
M82 ; use absolute distances for extrusion
G92 E0
G1 Z0.350 F7800.000
G1 E-2.00000 F2400.00000
G92 E0
G1 X49.165 Y54.253 F7800.000
G1 E2.00000 F2400.00000
G1 F1800
G1 X50.918 Y52.774 E2.07096
G1 X53.070 Y51.981 E2.14192
G1 X54.250 Y51.875 E2.17858
G1 X64.250 Y51.875 E2.48799
G1 X66.959 Y52.454 E2.57370
G1 X158.459 Y93.454 E5.67606
G1 X160.358 Y94.740 E5.74702
G1 X161.705 Y96.597 E5.81799
G1 X162.375 Y99.500 E5.91018
G1 X162.375 Y141.500 E7.20972
G1 X161.978 Y143.759 E7.28068
G1 X160.835 Y145.747 E7.35164
G1 X159.082 Y147.226 E7.42261
G1 X156.930 Y148.019 E7.49357
G1 X155.750 Y148.125 E7.53022
G1 X113.750 Y148.125 E8.82975
G1 X111.491 Y147.728 E8.90072
G1 X109.503 Y146.585 E8.97168
G1 X108.434 Y145.454 E9.01983
G1 X48.934 Y65.454 E12.10470
G1 X47.905 Y63.404 E12.17566
G1 X47.625 Y61.500 E12.23521
G1 X47.625 Y58.500 E12.32804
G1 X48.022 Y56.241 E12.39900
G1 X49.128 Y54.318 E12.46764
G1 E10.46764 F2400.00000
G92 E0
G1 X120.738 Y138.577 F7800.000
G1 E2.00000 F2400.00000
G1 F1800
G1 X117.762 Y138.577 E2.09207
G1 X116.274 Y136.000 E2.18414
G1 X117.762 Y133.423 E2.27621
G1 X120.738 Y133.423 E2.36829
G1 X122.226 Y136.000 E2.46036
G1 X120.775 Y138.512 E2.55011
G1 X120.377 Y137.952 F7800.000
G1 F1800
G1 X118.123 Y137.952 E2.61985
G1 X116.996 Y136.000 E2.68960
G1 X118.123 Y134.048 E2.75934
G1 X120.377 Y134.048 E2.82909
G1 X121.504 Y136.000 E2.89883
G1 X120.415 Y137.887 E2.96626
G1 X120.371 Y138.452 F7800.000
G1 E0.96626 F2400.00000
G92 E0
G1 X120.738 Y107.577 F7800.000
G1 E2.00000 F2400.00000
G1 F1800
G1 X117.762 Y107.577 E2.09207
G1 X116.274 Y105.000 E2.18414
G1 X117.762 Y102.423 E2.27621
G1 X120.738 Y102.423 E2.36829
G1 X122.226 Y105.000 E2.46036
G1 X120.775 Y107.512 E2.55011
G1 X120.377 Y106.952 F7800.000
G1 F1800
G1 X118.123 Y106.952 E2.61985
G1 X116.996 Y105.000 E2.68960
G1 X118.123 Y103.048 E2.75934
G1 X120.377 Y103.048 E2.82909
G1 X121.504 Y105.000 E2.89883
G1 X120.415 Y106.887 E2.96626
G1 X120.377 Y107.452 F7800.000
G1 E0.96626 F2400.00000
G92 E0
G1 X125.363 Y111.442 F7800.000
G1 E2.00000 F2400.00000
G1 F1800
G1 X125.979 Y110.758 E2.02845
G1 X128.196 Y109.148 E2.11324
G1 X130.699 Y108.033 E2.19803
G1 X133.380 Y107.463 E2.28283
G1 X136.120 Y107.463 E2.36762
G1 X138.801 Y108.033 E2.45241
G1 X141.304 Y109.148 E2.53720
G1 X143.521 Y110.758 E2.62200
G1 X145.355 Y112.795 E2.70679
G1 X146.725 Y115.168 E2.79158
G1 X147.572 Y117.775 E2.87638
G1 X147.859 Y120.500 E2.96117
G1 X147.572 Y123.225 E3.04596
G1 X146.725 Y125.832 E3.13076
G1 X145.355 Y128.205 E3.21555
G1 X143.521 Y130.242 E3.30034
G1 X141.304 Y131.852 E3.38514
G1 X138.801 Y132.967 E3.46993
G1 X136.120 Y133.537 E3.55472
G1 X133.380 Y133.537 E3.63951
G1 X130.699 Y132.967 E3.72431
G1 X128.196 Y131.852 E3.80910
G1 X125.979 Y130.242 E3.89389
G1 X124.145 Y128.205 E3.97868
G1 X122.775 Y125.832 E4.06348
G1 X121.928 Y123.225 E4.14827
G1 X121.641 Y120.500 E4.23306
G1 X121.928 Y117.775 E4.31786
G1 X122.775 Y115.168 E4.40265
G1 X124.145 Y112.795 E4.48744
G1 X125.313 Y111.497 E4.54147
G1 X125.828 Y111.860 F7800.000
G1 F1800
G1 X126.399 Y111.225 E4.56788
G1 X128.510 Y109.692 E4.64861
G1 X130.893 Y108.631 E4.72934
G1 X133.445 Y108.088 E4.81007
G1 X136.055 Y108.088 E4.89080
G1 X138.607 Y108.631 E4.97152
G1 X140.990 Y109.692 E5.05225
G1 X143.101 Y111.225 E5.13298
G1 X144.847 Y113.164 E5.21371
G1 X146.151 Y115.424 E5.29444
G1 X146.958 Y117.905 E5.37517
G1 X147.230 Y120.500 E5.45589
G1 X146.958 Y123.095 E5.53662
G1 X146.151 Y125.576 E5.61735
G1 X144.847 Y127.836 E5.69808
G1 X143.101 Y129.775 E5.77881
G1 X140.990 Y131.308 E5.85954
G1 X138.607 Y132.369 E5.94027
G1 X136.055 Y132.912 E6.02099
G1 X133.445 Y132.912 E6.10172
G1 X130.893 Y132.369 E6.18245
G1 X128.510 Y131.308 E6.26318
G1 X126.399 Y129.775 E6.34391
G1 X124.653 Y127.836 E6.42464
G1 X123.349 Y125.576 E6.50536
G1 X122.542 Y123.095 E6.58609
G1 X122.270 Y120.500 E6.66682
G1 X122.542 Y117.905 E6.74755
G1 X123.349 Y115.424 E6.82828
G1 X124.653 Y113.164 E6.90901
G1 X125.778 Y111.916 E6.96100
G1 X126.292 Y112.278 F7800.000
G1 F1800
G1 X126.820 Y111.692 E6.98538
G1 X128.824 Y110.236 E7.06205
G1 X131.088 Y109.228 E7.13871
G1 X133.511 Y108.713 E7.21537
G1 X135.989 Y108.713 E7.29204
G1 X138.412 Y109.228 E7.36870
G1 X140.676 Y110.236 E7.44537
G1 X142.680 Y111.692 E7.52203
G1 X144.338 Y113.534 E7.59870
G1 X145.577 Y115.679 E7.67536
G1 X146.343 Y118.036 E7.75202
G1 X146.602 Y120.500 E7.82869
G1 X146.343 Y122.964 E7.90535
G1 X145.577 Y125.321 E7.98202
G1 X144.338 Y127.466 E8.05868
G1 X142.680 Y129.308 E8.13535
G1 X140.676 Y130.764 E8.21201
G1 X138.412 Y131.772 E8.28867
G1 X135.989 Y132.287 E8.36534
G1 X133.511 Y132.287 E8.44200
G1 X131.088 Y131.772 E8.51867
G1 X128.824 Y130.764 E8.59533
G1 X126.820 Y129.308 E8.67199
G1 X125.162 Y127.466 E8.74866
G1 X123.923 Y125.321 E8.82532
G1 X123.157 Y122.964 E8.90199
G1 X122.898 Y120.500 E8.97865
G1 X123.157 Y118.036 E9.05532
G1 X123.923 Y115.679 E9.13198
G1 X125.162 Y113.534 E9.20864
G1 X126.242 Y112.334 E9.25860
G1 X126.118 Y111.809 F7800.000
G1 E7.25860 F2400.00000
G92 E0
G1 X121.099 Y108.202 F7800.000
G1 E2.00000 F2400.00000
G1 F1800
G1 X122.947 Y105.000 E2.11440
G1 X121.099 Y101.798 E2.22879
G1 X117.401 Y101.798 E2.34319
G1 X115.628 Y104.870 E2.45295
G1 X115.350 Y104.796 E2.46185
G1 X115.350 Y101.100 E2.57621
G1 X147.150 Y101.100 E3.56016
G1 X147.150 Y101.798 E3.58177
G1 X146.901 Y101.798 E3.58947
G1 X145.053 Y105.000 E3.70386
G1 X146.901 Y108.202 E3.81826
G1 X147.150 Y108.202 E3.82596
G1 X147.150 Y108.850 E3.84601
G1 X154.150 Y108.850 E4.06260
G1 X154.150 Y132.150 E4.78354
G1 X147.150 Y132.150 E5.00013
G1 X147.150 Y132.798 E5.02018
G1 X146.901 Y132.798 E5.02788
G1 X145.053 Y136.000 E5.14228
G1 X146.901 Y139.202 E5.25667
G1 X147.150 Y139.202 E5.26437
G1 X147.150 Y139.900 E5.28598
G1 X115.350 Y139.900 E6.26993
G1 X115.350 Y136.204 E6.38429
G1 X115.628 Y136.130 E6.39319
G1 X117.401 Y139.202 E6.50295
G1 X121.099 Y139.202 E6.61734
G1 X122.947 Y136.000 E6.73174
G1 X121.099 Y132.798 E6.84614
G1 X117.401 Y132.798 E6.96054
G1 X115.628 Y135.870 E7.07030
G1 X115.350 Y135.796 E7.07920
G1 X115.350 Y105.204 E8.02574
G1 X115.628 Y105.130 E8.03464
G1 X117.401 Y108.202 E8.14440
G1 X121.024 Y108.202 E8.25648
G1 E6.25648 F2400.00000
G92 E0
G1 X145.774 Y105.000 F7800.000
G1 E2.00000 F2400.00000
G1 F1800
G1 X147.262 Y107.577 E2.09207
G1 X147.775 Y107.577 E2.10794
G1 X147.775 Y108.225 E2.12799
G1 X154.775 Y108.225 E2.34458
G1 X154.775 Y132.775 E3.10420
G1 X147.775 Y132.775 E3.32078
G1 X147.775 Y133.423 E3.34083
G1 X147.262 Y133.423 E3.35670
G1 X145.774 Y136.000 E3.44877
G1 X147.262 Y138.577 E3.54084
G1 X147.775 Y138.577 E3.55672
G1 X147.775 Y139.225 E3.57676
G1 X154.775 Y139.225 E3.79335
G1 X154.775 Y140.525 E3.83358
G1 X114.725 Y140.525 E5.07279
G1 X114.725 Y100.475 E6.31200
G1 X154.775 Y100.475 E7.55120
G1 X154.775 Y101.775 E7.59143
G1 X147.775 Y101.775 E7.80802
G1 X147.775 Y102.423 E7.82807
G1 X147.262 Y102.423 E7.84394
G1 X145.812 Y104.935 E7.93369
G1 X146.496 Y105.000 F7800.000
G1 F1800
G1 X147.623 Y106.952 E8.00344
G1 X148.400 Y106.952 E8.02748
G1 X148.400 Y107.600 E8.04753
G1 X155.400 Y107.600 E8.26412
G1 X155.400 Y133.400 E9.06240
G1 X148.400 Y133.400 E9.27899
G1 X148.400 Y134.048 E9.29904
G1 X147.623 Y134.048 E9.32308
G1 X146.496 Y136.000 E9.39283
G1 X147.623 Y137.952 E9.46257
G1 X148.400 Y137.952 E9.48662
G1 X148.400 Y138.600 E9.50666
G1 X155.400 Y138.600 E9.72325
G1 X155.400 Y141.150 E9.80215
G1 X114.100 Y141.150 E11.08003
G1 X114.100 Y99.850 E12.35791
G1 X155.400 Y99.850 E13.63578
G1 X155.400 Y102.400 E13.71468
G1 X148.400 Y102.400 E13.93127
G1 X148.400 Y103.048 E13.95132
G1 X147.623 Y103.048 E13.97536
G1 X146.533 Y104.935 E14.04279
G1 X146.087 Y105.288 F7800.000
G1 E12.04279 F2400.00000
G92 E0
G1 X147.463 Y101.125 F7800.000
G1 E2.00000 F2400.00000
G1 F1800
G1 X154.463 Y101.125 E2.20804
G1 E0.20804 F2400.00000
G92 E0
G1 X115.966 Y101.968 F7800.000
G1 E2.00000 F2400.00000
G1 F1800
G1 X115.732 Y101.968 E2.00870
G1 X115.732 Y102.202 E2.01740
G1 X116.452 Y101.482 E2.05522
G1 X116.965 Y101.482 E2.07428
G1 X116.218 Y102.776 E2.12978
G1 X115.732 Y103.262 E2.15531
G1 E0.15531 F2400.00000
G92 E0
G1 X116.218 Y106.738 F7800.000
G1 E2.00000 F2400.00000
G1 F1800
G1 X115.732 Y107.224 E2.02151
G1 X115.732 Y108.117 E2.04946
G1 X116.545 Y107.304 E2.08543
G1 X116.872 Y107.870 E2.10589
G1 X115.732 Y109.011 E2.15633
G1 X115.732 Y109.904 E2.18428
G1 X117.199 Y108.437 E2.24919
G1 X117.284 Y108.584 E2.25449
G1 X117.945 Y108.584 E2.27520
G1 X115.732 Y110.798 E2.37314
G1 X115.732 Y111.691 E2.40109
G1 X118.839 Y108.584 E2.53855
G1 X119.732 Y108.584 E2.56650
G1 X115.732 Y112.584 E2.74349
G1 X115.732 Y113.478 E2.77144
G1 X120.626 Y108.584 E2.98796
G1 X121.519 Y108.584 E3.01591
G1 X115.732 Y114.371 E3.27195
G1 E1.27195 F2400.00000
G92 E0
G1 X123.477 Y112.881 F7800.000
G1 E2.00000 F2400.00000
G1 F1800
G1 X115.732 Y120.626 E2.34264
G1 X115.732 Y121.519 E2.37059
G1 X122.378 Y114.873 E2.66460
G1 X121.948 Y116.197 E2.70814
G1 X115.732 Y122.413 E2.98313
G1 X115.732 Y123.306 E3.01108
G1 X121.547 Y117.491 E3.26834
G1 X121.442 Y118.489 E3.29974
G1 X115.732 Y124.199 E3.55236
G1 X115.732 Y125.093 E3.58031
G1 X121.337 Y119.488 E3.82829
G1 X121.256 Y120.257 E3.85250
G1 X121.276 Y120.442 E3.85833
G1 X115.732 Y125.986 E4.10359
G1 X115.732 Y126.880 E4.13154
G1 X121.361 Y121.251 E4.38056
G1 X121.446 Y122.059 E4.40599
G1 X115.732 Y127.773 E4.65877
G1 X115.732 Y128.667 E4.68672
G1 X121.531 Y122.868 E4.94326
G1 X121.556 Y123.113 E4.95098
G1 X121.709 Y123.583 E4.96643
G1 X115.732 Y129.560 E5.23086
G1 X115.732 Y130.454 E5.25881
G1 X121.928 Y124.257 E5.53294
G1 X122.147 Y124.932 E5.55512
G1 X115.732 Y131.347 E5.83894
G1 X115.732 Y132.241 E5.86689
G1 X122.366 Y125.606 E6.16040
G1 X122.444 Y125.844 E6.16825
G1 X122.655 Y126.211 E6.18147
G1 X115.732 Y133.134 E6.48777
G1 X115.732 Y134.027 E6.51572
G1 X116.053 Y133.706 E6.52992
G1 X116.798 Y132.416 E6.57652
G1 X117.343 Y132.416 E6.59358
G1 X122.982 Y126.777 E6.84306
G1 X123.309 Y127.343 E6.86352
G1 X118.236 Y132.416 E7.08794
G1 X119.130 Y132.416 E7.11589
G1 X123.636 Y127.910 E7.31526
G1 X123.880 Y128.331 E7.33049
G1 X123.988 Y128.452 E7.33555
G1 X120.023 Y132.416 E7.51095
G1 X120.917 Y132.416 E7.53889
G1 X124.411 Y128.922 E7.69349
G1 X124.835 Y129.392 E7.71328
G1 X121.434 Y132.793 E7.86374
G1 X121.761 Y133.359 E7.88420
G1 X125.258 Y129.862 E8.03891
G1 X125.681 Y130.332 E8.05870
G1 X122.088 Y133.926 E8.21767
G1 X122.415 Y134.492 E8.23813
G1 X126.172 Y130.735 E8.40434
G1 X126.689 Y131.111 E8.42435
G1 X122.742 Y135.058 E8.59899
G1 X123.069 Y135.625 E8.61945
G1 X127.207 Y131.487 E8.80252
G1 X127.724 Y131.863 E8.82253
G1 X123.396 Y136.191 E9.01402
G1 X123.426 Y136.243 E9.01589
G1 X122.317 Y138.164 E9.08527
G1 X128.265 Y132.216 E9.34841
G1 X128.883 Y132.491 E9.36958
G1 X121.856 Y139.518 E9.68046
G1 X122.749 Y139.518 E9.70841
G1 X129.501 Y132.766 E10.00712
G1 X130.119 Y133.042 E10.02828
G1 X123.643 Y139.518 E10.31481
G1 X124.536 Y139.518 E10.34276
G1 X130.738 Y133.317 E10.61712
G1 X131.472 Y133.475 E10.64063
G1 X125.430 Y139.518 E10.90797
G1 X126.323 Y139.518 E10.93592
G1 X132.209 Y133.632 E11.19632
G1 X132.946 Y133.789 E11.21989
G1 X127.216 Y139.518 E11.47337
G1 X128.110 Y139.518 E11.50131
G1 X133.710 Y133.919 E11.74905
G1 X134.603 Y133.919 E11.77699
G1 X129.003 Y139.518 E12.02473
G1 X129.897 Y139.518 E12.05267
G1 X135.497 Y133.919 E12.30041
G1 X136.390 Y133.919 E12.32835
G1 X130.790 Y139.518 E12.57609
G1 X131.684 Y139.518 E12.60403
G1 X137.514 Y133.688 E12.86197
G1 X138.649 Y133.447 E12.89826
G1 X132.577 Y139.518 E13.16687
G1 X133.471 Y139.518 E13.19482
G1 X140.012 Y132.977 E13.48422
G1 X141.623 Y132.260 E13.53936
G1 X134.364 Y139.518 E13.86048
G1 X135.258 Y139.518 E13.88843
G1 X153.768 Y121.008 E14.70733
G1 X153.768 Y121.901 E14.73528
G1 X136.151 Y139.518 E15.51467
G1 X137.045 Y139.518 E15.54261
G1 X153.768 Y122.795 E16.28247
G1 X153.768 Y123.688 E16.31042
G1 X137.938 Y139.518 E17.01075
G1 E15.01075 F2400.00000
G92 E0
G1 X145.979 Y139.518 F7800.000
G1 E2.00000 F2400.00000
G1 F1800
G1 X146.465 Y139.032 E2.02151
G1 X146.138 Y138.466 E2.04197
G1 X145.086 Y139.518 E2.08853
G1 X144.192 Y139.518 E2.11648
G1 X145.811 Y137.899 E2.18810
G1 X145.484 Y137.333 E2.20856
G1 X143.299 Y139.518 E2.30525
G1 X142.405 Y139.518 E2.33320
G1 X145.157 Y136.767 E2.45494
G1 X144.830 Y136.200 E2.47540
G1 X141.512 Y139.518 E2.62219
G1 X140.618 Y139.518 E2.65014
G1 X144.840 Y135.297 E2.83690
G1 X146.060 Y133.183 E2.91326
G1 X139.725 Y139.518 E3.19354
G1 X138.831 Y139.518 E3.22149
G1 X146.768 Y131.581 E3.57262
G1 X146.282 Y132.067 F7800.000
G1 F1800
G1 X146.282 Y131.768 E3.58198
G1 X146.581 Y131.768 E3.59133
G1 X153.768 Y124.581 E3.90928
G1 X153.768 Y125.475 E3.93723
G1 X147.475 Y131.768 E4.21565
G1 X148.368 Y131.768 E4.24360
G1 X153.768 Y126.368 E4.48250
G1 X153.768 Y127.262 E4.51045
G1 X149.262 Y131.768 E4.70981
G1 X150.155 Y131.768 E4.73776
G1 X153.768 Y128.155 E4.89761
G1 X153.768 Y129.049 E4.92555
G1 X151.049 Y131.768 E5.04587
G1 X151.942 Y131.768 E5.07382
G1 X153.768 Y129.942 E5.15461
G1 X153.768 Y130.836 E5.18256
G1 X152.836 Y131.768 E5.22382
G1 E3.22382 F2400.00000
G92 E0
G1 X146.379 Y127.504 F7800.000
G1 E2.00000 F2400.00000
G1 F1800
G1 X153.768 Y120.114 E2.32691
G1 X153.768 Y119.221 E2.35486
G1 X147.248 Y125.741 E2.64333
G1 X147.678 Y124.418 E2.68686
G1 X153.768 Y118.327 E2.95632
G1 X153.768 Y117.434 E2.98427
G1 X147.984 Y123.218 E3.24018
G1 X148.089 Y122.220 E3.27158
G1 X153.768 Y116.540 E3.52285
G1 X153.768 Y115.647 E3.55080
G1 X148.194 Y121.222 E3.79743
G1 X148.244 Y120.743 E3.81248
G1 X148.200 Y120.322 E3.82572
G1 X153.768 Y114.753 E4.07208
G1 X153.768 Y113.860 E4.10003
G1 X148.115 Y119.514 E4.35015
G1 X148.030 Y118.705 E4.37558
G1 X153.768 Y112.966 E4.62945
G1 X153.768 Y112.073 E4.65740
G1 X147.945 Y117.897 E4.91504
G1 X147.727 Y117.221 E4.93725
G1 X153.768 Y111.180 E5.20451
G1 X153.768 Y110.286 E5.23246
G1 X147.508 Y116.546 E5.50941
G1 X147.289 Y115.872 E5.53159
G1 X153.768 Y109.393 E5.81823
G1 X153.768 Y109.232 E5.82327
G1 X153.036 Y109.232 E5.84618
G1 X147.070 Y115.198 E6.11012
G1 X146.750 Y114.624 E6.13066
G1 X152.142 Y109.232 E6.36923
G1 X151.249 Y109.232 E6.39718
G1 X146.423 Y114.058 E6.61070
G1 X146.096 Y113.492 E6.63116
G1 X150.356 Y109.232 E6.81963
G1 X149.462 Y109.232 E6.84758
G1 X145.768 Y112.925 E7.01098
G1 X145.620 Y112.669 E7.02025
G1 X145.389 Y112.411 E7.03107
G1 X148.569 Y109.232 E7.17175
G1 X147.675 Y109.232 E7.19970
G1 X144.965 Y111.941 E7.31957
G1 X144.542 Y111.471 E7.33936
G1 X146.782 Y109.232 E7.43844
G1 X146.768 Y109.232 E7.43886
G1 X146.768 Y108.557 E7.45995
G1 X146.693 Y108.427 E7.46467
G1 X144.119 Y111.001 E7.57855
G1 X143.695 Y110.532 E7.59834
G1 X146.366 Y107.860 E7.71651
G1 X146.039 Y107.294 E7.73697
G1 X143.177 Y110.156 E7.86357
G1 X142.660 Y109.780 E7.88358
G1 X145.712 Y106.728 E8.01860
G1 X145.385 Y106.161 E8.03906
G1 X142.142 Y109.404 E8.18251
G1 X141.625 Y109.028 E8.20252
G1 X145.058 Y105.595 E8.35440
G1 X144.731 Y105.028 E8.37486
G1 X141.055 Y108.704 E8.53747
G1 X140.437 Y108.429 E8.55864
G1 X145.210 Y103.656 E8.76980
G1 X146.431 Y101.541 E8.84616
G1 X139.819 Y108.153 E9.13867
G1 X139.201 Y107.878 E9.15984
G1 X145.597 Y101.482 E9.44283
G1 X144.704 Y101.482 E9.47078
G1 X138.550 Y107.636 E9.74302
G1 X137.813 Y107.479 E9.76659
G1 X143.810 Y101.482 E10.03190
G1 X142.917 Y101.482 E10.05985
G1 X137.076 Y107.322 E10.31824
G1 X136.339 Y107.166 E10.34180
G1 X142.023 Y101.482 E10.59326
G1 X141.130 Y101.482 E10.62121
G1 X135.530 Y107.081 E10.86894
G1 X134.637 Y107.081 E10.89689
G1 X140.236 Y101.482 E11.14462
G1 X139.343 Y101.482 E11.17257
